X: 30127
T: Old Brown Slipper, The
R: slip jig
M: 9/8
K: Gmajor
BBB B2 A GED|D2 g g2 e dBA|BBB B2 A GED|EGG G2 A G3:|
e2 g g2 e fed|B2 e efe dBA|B2 d g2 e fed|Bee e2 d e3|
e2 f g2 e fed|B2 e efe dBA|BBB B2 A GED|EGG G2 G G3||

